X: 19
T:Spry Young Lad (#324), The
M:4/4
L:1/8
S:Capt. F. O'Neill
R:Hornpipe
K:G
(3def|g2 dc BG G2|GABG A3 z|GABc d2 g2|fgag fdef|
g2 dc BG G2|GABG A3 z|GABc d2 g2|fgaf g2:|
|:Bc|dBGB d2 e2|dcBA G2 AB|cAFA c2 d2|c2 BA G2 Bc|
dBGB d2 g2|f2 e2 c2 c2|d2 (3ddd d2 d2|^cdec d2:||

